public/img/icons/icon-form.svg

<svg width="187" height="125" viewBox="0 0 187 125" fill="none" xmlns="http://www.w3.org/2000/svg">
<path d="M170.115 0H16.0933C7.21982 0 0 7.21982 0 16.0947V108.905C0 117.78 7.21982 125 16.0933 125H170.115C178.989 125 186.209 117.78 186.209 108.905V16.0947C186.209 7.21982 178.989 0 170.115 0V0ZM180.679 108.905C180.679 114.73 175.939 119.469 170.115 119.469H16.0933C10.27 119.469 5.53065 114.73 5.53065 108.905V16.0947C5.53065 10.27 10.27 5.53065 16.0933 5.53065H170.115C175.939 5.53065 180.679 10.27 180.679 16.0947V108.905Z" fill="#DADAE4"/>
<path d="M82.7805 22.1221H18.6219C17.0947 22.1221 15.8558 23.3595 15.8558 24.8881V42.5867C15.8558 44.114 18.4889 42.5867 18.4889 42.5867C18.4889 42.5867 21.3879 44.114 21.3879 42.5867V27.6527H80.0159V95.1314H21.3879V42.5867C21.3879 41.0595 18.4889 42.5867 18.4889 42.5867C18.4889 42.5867 15.8558 41.0595 15.8558 42.5867V97.896C15.8558 99.4232 17.0947 100.662 18.6219 100.662H82.7805C84.3077 100.662 85.5465 99.4232 85.5465 97.896V24.8881C85.5465 23.3595 84.3077 22.1221 82.7805 22.1221Z" fill="#DADAE4"/>
<path d="M168.328 28.5352H99.0064C97.4792 28.5352 96.2404 29.774 96.2404 31.3012C96.2404 32.8284 97.4792 34.0658 99.0064 34.0658H168.328C169.855 34.0658 171.092 32.8284 171.092 31.3012C171.092 29.774 169.855 28.5352 168.328 28.5352Z" fill="#DADAE4"/>
<path d="M168.327 48.5977H152.841C151.314 48.5977 150.076 49.8351 150.076 51.3623C150.076 52.8895 151.314 54.1283 152.841 54.1283H168.327C169.855 54.1283 171.092 52.8895 171.092 51.3623C171.092 49.8351 169.855 48.5977 168.327 48.5977Z" fill="#DADAE4"/>
<path d="M99.0064 54.1283H141.778C143.305 54.1283 144.544 52.8895 144.544 51.3623C144.544 49.8351 143.305 48.5977 141.778 48.5977H99.0064C97.4792 48.5977 96.2404 49.8351 96.2404 51.3623C96.2404 52.8895 97.4792 54.1283 99.0064 54.1283Z" fill="#DADAE4"/>
<path d="M168.328 68.6602H99.0064C97.4792 68.6602 96.2404 69.8976 96.2404 71.4248C96.2404 72.952 97.4792 74.1908 99.0064 74.1908H168.328C169.855 74.1908 171.092 72.952 171.092 71.4248C171.092 69.8976 169.855 68.6602 168.328 68.6602Z" fill="#DADAE4"/>
<path d="M136.617 88.7227H99.0064C97.4792 88.7227 96.2404 89.9601 96.2404 91.4873C96.2404 93.0145 97.4792 94.2533 99.0064 94.2533H136.617C138.144 94.2533 139.382 93.0145 139.382 91.4873C139.382 89.9601 138.144 88.7227 136.617 88.7227Z" fill="#DADAE4"/>
<path d="M29 95.3208C29 96.8008 30.2388 98 31.766 98C33.2933 98 34.5321 96.8008 34.5321 95.3208C34.5321 78.1325 43.376 75.5214 51.0007 75.5214C58.6254 75.5214 67.4693 80.6921 67.4693 95.3208C67.4693 96.8008 68.7067 98 70.234 98C71.7612 98 73 96.8008 73 95.3208C73 81.972 66.5869 76.1258 60.9596 72.8408C66.5869 69.5558 70.3587 63.5778 70.3587 56.76C70.3587 46.4163 61.6742 38 51.0007 38C40.3258 38 31.6413 46.4163 31.6413 56.76C31.6413 63.5778 35.4146 69.5558 41.0418 72.8408C35.4146 76.1258 29 79.4123 29 95.3208ZM37.1734 56.76C37.1734 49.3708 43.376 43.3598 51.0007 43.3598C58.6254 43.3598 64.8281 49.3708 64.8281 56.76C64.8281 64.1492 58.6254 70.1602 51.0007 70.1602C43.376 70.1602 37.1734 64.1492 37.1734 56.76Z" fill="#DADAE4"/>
</svg>

<svg width="187" height="125" viewBox="0 0 187 125" fill="none" xmlns="http://www.w3.org/2000/svg"><path d="M170.115 0H16.093C7.22 0 0 7.22 0 16.095v92.81C0 117.78 7.22 125 16.093 125h154.022c8.874 0 16.094-7.22 16.094-16.095v-92.81C186.209 7.22 178.989 0 170.115 0zm10.564 108.905c0 5.825-4.74 10.564-10.564 10.564H16.093c-5.823 0-10.562-4.739-10.562-10.564v-92.81C5.53 10.27 10.27 5.53 16.093 5.53h154.022c5.824 0 10.564 4.739 10.564 10.564v92.81z" fill="#DADAE4"/><path d="M82.78 22.122H18.623a2.766 2.766 0 0 0-2.766 2.766v17.699c0 1.527 2.633 0 2.633 0s2.899 1.527 2.899 0V27.653h58.628V95.13H21.388V42.587c0-1.528-2.9 0-2.9 0s-2.632-1.528-2.632 0v55.309a2.767 2.767 0 0 0 2.766 2.766H82.78a2.767 2.767 0 0 0 2.765-2.766V24.888a2.766 2.766 0 0 0-2.766-2.766zM168.328 28.535H99.006a2.767 2.767 0 0 0 0 5.53h69.322a2.765 2.765 0 1 0 0-5.53zM168.327 48.598h-15.486a2.765 2.765 0 1 0 0 5.53h15.486a2.765 2.765 0 0 0 0-5.53zM99.006 54.128h42.772a2.765 2.765 0 0 0 0-5.53H99.006a2.765 2.765 0 1 0 0 5.53zM168.328 68.66H99.006a2.765 2.765 0 1 0 0 5.53h69.322a2.765 2.765 0 0 0 0-5.53zM136.617 88.723h-37.61a2.765 2.765 0 1 0 0 5.53h37.61a2.766 2.766 0 0 0 0-5.53z" fill="#DADAE4"/><path d="M29 95.32C29 96.8 30.239 98 31.766 98s2.766-1.2 2.766-2.68c0-17.188 8.844-19.799 16.469-19.799 7.624 0 16.468 5.171 16.468 19.8 0 1.48 1.238 2.679 2.765 2.679C71.761 98 73 96.8 73 95.32c0-13.348-6.413-19.194-12.04-22.48 5.627-3.284 9.399-9.262 9.399-16.08C70.359 46.416 61.674 38 51 38c-10.675 0-19.36 8.416-19.36 18.76 0 6.818 3.774 12.796 9.4 16.08C35.416 76.127 29 79.413 29 95.32zm8.173-38.56c0-7.39 6.203-13.4 13.828-13.4 7.624 0 13.827 6.01 13.827 13.4 0 7.39-6.203 13.4-13.827 13.4-7.625 0-13.828-6.01-13.828-13.4z" fill="#DADAE4"/></svg>
